X: 30
T:Untitled
M:4/4
L:1/8
C:Dan Beimborn
R:Reel
N:Composed 8/4/96
K:D
|:EAcA BAFA|EAcA B2 Bc|EAcA BAFA|dBcA BAFA|
EAcA BAFA|EAcA B2 Bc|efae faec|dece B2 Bc:|
|:D2 FA BAFA|defd efdB|D2 FA BAFA|GDFD A,B,DE|
D2 FA BAFA|defd efdf|a2 ab afdf|gefd edBd:|

